X:1
T:Annachie Gordon
M:4/4
L:1/4
K:D
 F/2 F3/2- F A| F/2 F3/2F/2-E/2 D| F2 F A| A2 z/2 A/2 B| B2 B A|F/2-E/2 D2 F|\
 F2 d c| B3 f| f2 g f| e2f/2-e/2 d| d3/2 d/2d/2-c/2 B| A3 B| B/2 B3/2- B d|\
F/2-E/2 D/2 D3/2 F| F2 d/2c/2 B-| B3 f| f2 g f| e/2 e3/2 f e| d/2 d3/2d/2-c/2 B|\
 A2 z/2 B/2 B| B2 B c| d2d/2-c/2B/2-A/2| e2 f e| d2 FG/2-A/2| A2 d/2 d3/2|\
 e/2 e3/2- ee/2-d/2| e3/2 d/2 d F| A3 B| B/2 B3/2- B A|F/2-E/2 D/2 D3/2 F|\
 F2 d/2c/2 B-| B3 z|
